ui/StatusQ/src/assets/img/icons/thumbs-up.svg

<svg fill="none" height="24" viewBox="0 0 24 24" width="24" xmlns="http://www.w3.org/2000/svg"><path d="m4.05322 14.9517c0 2.5854 1.65528 4.7021 3.7793 4.7021h2.40968c.9888.5054 2.1606.7983 3.4497.7983h1.0254c.9521 0 1.7651-.0585 2.2925-.1904 1.0766-.271 1.7578-1.0327 1.7578-1.9922 0-.1757-.022-.3296-.0733-.4907.5054-.3882.7911-.9668.7911-1.5967 0-.2929-.0586-.5786-.1612-.8203.3369-.3589.5347-.8716.5347-1.4062 0-.3589-.0879-.7105-.2344-.9888.2051-.3149.3223-.7324.3223-1.1865 0-1.1719-.8936-2.07278-2.0508-2.07278h-2.7246c-.1538 0-.2564-.07324-.249-.2124.0366-.76172 1.2231-2.5708 1.2231-4.05762 0-1.09131-.769-1.88965-1.831-1.88965-.7691 0-1.2964.40283-1.8018 1.36231-.9082 1.75781-2.0142 3.29589-3.64747 5.30274h-1.31103c-1.99219 0-3.50098 2.1094-3.50098 4.7388zm4.56299-.0586c0-1.5528.34424-2.5489 1.34033-3.8745 1.10596-1.48686 2.64406-3.26665 3.74996-5.47856.2344-.46143.3956-.57861.6299-.57861.2783 0 .4615.20507.4615.55664 0 1.08398-1.2452 2.90039-1.2452 4.08691 0 .88622.7105 1.45022 1.6773 1.45022h2.6294c.4248 0 .7397.3222.7397.747 0 .3003-.0952.4981-.3515.7471-.1905.1904-.2198.4688-.0513.6665.2124.293.3003.4907.3003.7398 0 .3003-.1392.5566-.4321.769-.2491.1831-.337.4761-.1905.7691.1538.3002.2344.4467.2344.6811 0 .3516-.2271.6152-.6812.8569-.2417.1319-.3076.3955-.205.6226.1538.3735.1757.4468.1684.6079 0 .3149-.227.564-.7177.6885-.4322.1025-1.1207.1538-2.0289.1465l-.9448-.0074c-3.0322-.0293-5.08299-1.7358-5.08299-4.1967zm-3.22998.0586c0-1.8604.95215-3.3472 2.05078-3.3985h.57129c-.52002 1.0108-.74707 2.0728-.74707 3.3399 0 1.3476.46875 2.5341 1.32568 3.457-.27099 0-.55664 0-.83496 0-1.28174-.0513-2.36572-1.5601-2.36572-3.3984z" fill="#000"/></svg>

<svg width="24" height="24" viewBox="0 0 24 24" fill="none" xmlns="http://www.w3.org/2000/svg">
<path d="M4.05322 14.9517C4.05322 17.5371 5.7085 19.6538 7.83252 19.6538H10.2422C11.231 20.1592 12.4028 20.4521 13.6919 20.4521H14.7173C15.6694 20.4521 16.4824 20.3936 17.0098 20.2617C18.0864 19.9907 18.7676 19.229 18.7676 18.2695C18.7676 18.0938 18.7456 17.9399 18.6943 17.7788C19.1997 17.3906 19.4854 16.812 19.4854 16.1821C19.4854 15.8892 19.4268 15.6035 19.3242 15.3618C19.6611 15.0029 19.8589 14.4902 19.8589 13.9556C19.8589 13.5967 19.771 13.2451 19.6245 12.9668C19.8296 12.6519 19.9468 12.2344 19.9468 11.7803C19.9468 10.6084 19.0532 9.70752 17.896 9.70752H15.1714C15.0176 9.70752 14.915 9.63428 14.9224 9.49512C14.959 8.7334 16.1455 6.92432 16.1455 5.4375C16.1455 4.34619 15.3765 3.54785 14.3145 3.54785C13.5454 3.54785 13.0181 3.95068 12.5127 4.91016C11.6045 6.66797 10.4985 8.20605 8.86523 10.2129H7.5542C5.56201 10.2129 4.05322 12.3223 4.05322 14.9517ZM8.61621 14.8931C8.61621 13.3403 8.96045 12.3442 9.95654 11.0186C11.0625 9.53174 12.6006 7.75195 13.7065 5.54004C13.9409 5.07861 14.1021 4.96143 14.3364 4.96143C14.6147 4.96143 14.7979 5.1665 14.7979 5.51807C14.7979 6.60205 13.5527 8.41846 13.5527 9.60498C13.5527 10.4912 14.2632 11.0552 15.23 11.0552H17.8594C18.2842 11.0552 18.5991 11.3774 18.5991 11.8022C18.5991 12.1025 18.5039 12.3003 18.2476 12.5493C18.0571 12.7397 18.0278 13.0181 18.1963 13.2158C18.4087 13.5088 18.4966 13.7065 18.4966 13.9556C18.4966 14.2559 18.3574 14.5122 18.0645 14.7246C17.8154 14.9077 17.7275 15.2007 17.874 15.4937C18.0278 15.7939 18.1084 15.9404 18.1084 16.1748C18.1084 16.5264 17.8813 16.79 17.4272 17.0317C17.1855 17.1636 17.1196 17.4272 17.2222 17.6543C17.376 18.0278 17.3979 18.1011 17.3906 18.2622C17.3906 18.5771 17.1636 18.8262 16.6729 18.9507C16.2407 19.0532 15.5522 19.1045 14.644 19.0972L13.6992 19.0898C10.667 19.0605 8.61621 17.354 8.61621 14.8931ZM5.38623 14.9517C5.38623 13.0913 6.33838 11.6045 7.43701 11.5532C7.62744 11.5532 7.81787 11.5532 8.0083 11.5532C7.48828 12.564 7.26123 13.626 7.26123 14.8931C7.26123 16.2407 7.72998 17.4272 8.58691 18.3501C8.31592 18.3501 8.03027 18.3501 7.75195 18.3501C6.47021 18.2988 5.38623 16.79 5.38623 14.9517Z" fill="black"/>
</svg>
